source/images/_favicon_template.svg

<svg clip-rule="evenodd" fill-rule="evenodd" stroke-linejoin="round" stroke-miterlimit="1.41421" viewBox="0 0 1084 1084" xmlns="http://www.w3.org/2000/svg"><g fill="#22952f" fill-rule="nonzero" transform="matrix(.379309 .00213256 .00213256 -.379309 -254.624 1229.588)"><path d="m1888 3045c-169-29-335-96-495-201-209-135-386-365-471-609-134-386-76-800 158-1127 204-285 525-476 863-513l57-6 1 73c0 40 4 94 8 120 9 56 1 68-49 68-98 0-241 45-339 108-60 38-64 41-107 97-48 61-90 143-115 220-19 58-23 94-23 210l-1 140 90 3c225 8 415-62 537-197l46-51 12 33c57 151 152 267 266 325 107 54 187 73 336 79l137 6 7-28c4-15 4-82 1-149-9-187-58-309-174-436-59-64-146-115-258-150-38-12-77-26-85-30-36-18-85-246-78-370l3-65 40 3c96 7 264 56 368 107 117 59 267 163 341 239 374 383 469 928 245 1411-56 120-178 285-287 387-104 97-297 207-453 258-175 57-402 75-581 45z"/><path d="m2526 1594c-74-20-154-64-188-103-40-45-84-142-93-205l-8-49 39 6c65 11 179 73 219 120 44 51 92 148 101 205 7 48 8 47-70 26z"/><path d="m1592 1412c-30-10 27-161 89-235 44-53 177-117 247-117 33 0 29 39-12 124-45 93-94 149-160 181-61 30-145 54-164 47z"/></g></svg>

<?xml version="1.0" encoding="UTF-8" standalone="no"?>
<!DOCTYPE svg PUBLIC "-//W3C//DTD SVG 1.1//EN" "http://www.w3.org/Graphics/SVG/1.1/DTD/svg11.dtd">
<svg width="100%" height="100%" viewBox="0 0 1084 1084" version="1.1" xmlns="http://www.w3.org/2000/svg" xmlns:xlink="http://www.w3.org/1999/xlink" xml:space="preserve" xmlns:serif="http://www.serif.com/" style="fill-rule:evenodd;clip-rule:evenodd;stroke-linejoin:round;stroke-miterlimit:1.41421;">
    <g transform="matrix(0.1,0,0,-0.1,330,728)">
        <g transform="matrix(3.79309,-0.0213256,0.0213256,3.79309,-5846.24,-5015.88)">
            <path d="M1888,3045C1719,3016 1553,2949 1393,2844C1184,2709 1007,2479 922,2235C788,1849 846,1435 1080,1108C1284,823 1605,632 1943,595L2000,589L2001,662C2001,702 2005,756 2009,782C2018,838 2010,850 1960,850C1862,850 1719,895 1621,958C1561,996 1557,999 1514,1055C1466,1116 1424,1198 1399,1275C1380,1333 1376,1369 1376,1485L1375,1625L1465,1628C1690,1636 1880,1566 2002,1431L2048,1380L2060,1413C2117,1564 2212,1680 2326,1738C2433,1792 2513,1811 2662,1817L2799,1823L2806,1795C2810,1780 2810,1713 2807,1646C2798,1459 2749,1337 2633,1210C2574,1146 2487,1095 2375,1060C2337,1048 2298,1034 2290,1030C2254,1012 2205,784 2212,660L2215,595L2255,598C2351,605 2519,654 2623,705C2740,764 2890,868 2964,944C3338,1327 3433,1872 3209,2355C3153,2475 3031,2640 2922,2742C2818,2839 2625,2949 2469,3000C2294,3057 2067,3075 1888,3045Z" style="fill:rgb(34,149,47);fill-rule:nonzero;"/>
        </g>
        <g transform="matrix(3.79309,-0.0213256,0.0213256,3.79309,-5846.24,-5015.88)">
            <path d="M2526,1594C2452,1574 2372,1530 2338,1491C2298,1446 2254,1349 2245,1286L2237,1237L2276,1243C2341,1254 2455,1316 2495,1363C2539,1414 2587,1511 2596,1568C2603,1616 2604,1615 2526,1594Z" style="fill:rgb(34,149,47);fill-rule:nonzero;"/>
        </g>
        <g transform="matrix(3.79309,-0.0213256,0.0213256,3.79309,-5846.24,-5015.88)">
            <path d="M1592,1412C1562,1402 1619,1251 1681,1177C1725,1124 1858,1060 1928,1060C1961,1060 1957,1099 1916,1184C1871,1277 1822,1333 1756,1365C1695,1395 1611,1419 1592,1412Z" style="fill:rgb(34,149,47);fill-rule:nonzero;"/>
        </g>
    </g>
</svg>
